!!!!SEGMENT: pl-cz--iii-745--001-009_zebrowski-marcin-jozef--missa-pastoralis-benedictus.krn
!!!cenid: 17xx:2357
!!!COM: Żebrowski, Marcin Józef
!!!COM-rismid: pe30020322
!!!CDT: 1702-1770/06/29
!!!CNT: Polish
!!!OPR: Missa Pastoralis
!!!OTL: Benedictus
!!!OMV: 009
!!!PDT:
!!!AGN:
!!!SMS-siglum: PL-CZ
!!!SMS-shelfmark: III-745
!!!SMS-shelfwork: 001-009 M
!!!SMS-variant:
!!!SMS-altvar:
!!!NIFC-rismid: 300033497
!!!URL-scan: https://repozytorium.nifc.pl/islandora/object/pl-cz%3A25279/datastream/PDF/view
!!!ONB-nifc: UWAGA: części Mszy: 1. Kyrie, 2. Christe, 3. Et in terra, 4. Quoniam, 5. Patrem, 6. Et incarnatus, 7. Et resurrexit, 8. Sanctus, 9. Benedictus, 10. Osanna, 11. Agnus Dei
!!!key: G
**kern	**fba	**dynam	**kern	**dynam	**kern	**dynam	**kern	**text	**kern	**kern	**kern
*	*	*	*group3	*	*group3	*	*group2	*	*group2	*group1	*group1
*part7	*part7	*part7	*part6	*part6	*part5	*part5	*part4	*part4	*part3	*part2	*part1
*staff7	*	*	*staff6	*	*staff5	*	*staff4	*staff4	*staff3	*staff2	*staff1
*I"Organo	*	*	*I"Violino Secundo	*	*I"Violino Primo.	*	*I"Baſso.	*	*I"Soprano o Canto.	*I"Clarino Secundo in D:	*I"Clarino Primo in D:
*I'org	*	*	*I'vl 2	*	*I'vl 1	*	*I'B	*	*I'S	*I'clno 2 in D	*I'clno 1 in D
*Iorgan	*	*	*Ivioln	*	*Ivioln	*	*Ibass	*	*Isoprn	*Iclrno	*Iclrno
*ICklav	*	*	*ICstr	*	*ICstr	*	*ICvox	*	*ICvox	*ICbras	*ICbras
*IGcont	*	*	*	*	*	*	*	*	*	*	*
*clefF4	*	*	*clefG2	*	*clefG2	*	*clefF4	*	*clefG2	*clefG2	*clefG2
*	*	*	*	*	*	*	*	*	*	*ITrd-1c-2	*ITrd-1c-2
*k[f#]	*	*	*k[f#]	*	*k[f#]	*	*k[f#]	*	*k[f#]	*k[f#]	*k[f#]
*G:	*	*	*G:	*	*G:	*	*G:	*	*G:	*G:	*G:
*M4/4	*	*	*M4/4	*	*M4/4	*	*M4/4	*	*M4/4	*M4/4	*M4/4
*met(c)	*	*	*met(c)	*	*met(c)	*	*met(c)	*	*met(c)	*met(c)	*met(c)
=	=	=	=	=	=	=	=	=	=	=	=
*all\right	*	*	*	*	*	*	*	*	*	*	*
!LO:TX:a:i:t=Andantino	!	!	!LO:TX:a:i:t=andantino	!	!LO:TX:a:i:t=Solo andantino	!	!LO:TX:a:t=Solo	!	!LO:TX:a:i:t=Benedictus Tacet.	!LO:TX:a:i:t=Benedictus Tacet	!LO:TX:a:i:t=Benedi Tac
8ryy	.	.	8ryy	.	8r	.	8ryy	.	4ryy	4ryy	4ryy
8r	.	.	8r	.	16.g/LL	.	8r	.	.	.	.
.	.	.	.	.	32f#/JJk	.	.	.	.	.	.
=1	=1	=1	=1	=1	=1	=1	=1	=1	=1	=1	=1
.	.	.	.	.	8qqa/	.	.	.	.	.	.
!	!	!	!	!	!LO:TUP:b:problem=klamra łukowa	!	!	!	!	!	!
8r	.	.	(>16dLL 16B/	.	24g/LL	.	00r	.	1ryy	1ryy	1ryy
.	.	.	.	.	24f#/	.	.	.	.	.	.
.	.	.	16d 16B~>/	.	.	.	.	.	.	.	.
.	.	.	.	.	24g/J	.	.	.	.	.	.
16.G\LL	.	.	16d 16B/	.	8d/J	.	.	.	.	.	.
.	.	.	16dJJ 16B~>/	.	.	.	.	.	.	.	.
32F#\JJk	.	.	.	.	.	.	.	.	.	.	.
!LO:TX:t=P:problem=mixed beam	!	!	!	!	!	!	!	!	!	!	!
8G\L	.	.	16dLL 16B~>/	.	8r	.	.	.	.	.	.
.	.	.	16d 16B/	.	.	.	.	.	.	.	.
!	!	!	!	!	!LO:TUP:a:problem=klamra łukowa	!	!	!	!	!	!
8GG/J	.	.	16d 16B~>/	.	24b\LL	.	.	.	.	.	.
.	.	.	.	.	24dd\	.	.	.	.	.	.
.	.	.	16dJJ 16B/	.	.	.	.	.	.	.	.
.	.	.	.	.	24cc\JJ	.	.	.	.	.	.
.	.	.	.	.	8qqcc/	.	.	.	.	.	.
!	!	!	!	!	!LO:TUP:b:problem=klamra łukowa	!	!	!	!	!	!
8GG/L	.	.	16dLL 16B~>/	.	24b/LL	.	.	.	.	.	.
.	.	.	.	.	24a/	.	.	.	.	.	.
.	.	.	16d 16B~>/	.	.	.	.	.	.	.	.
.	.	.	.	.	24g/J	.	.	.	.	.	.
8GG/	.	.	16d 16B~>/	.	8g|/J	.	.	.	.	.	.
.	.	.	16dJJ 16B~>/	.	.	.	.	.	.	.	.
8BB/	6	.	8d/L)|	.	16r	.	.	.	.	.	.
!	!	!	!	!	!LO:LB:g=original	!	!	!	!	!	!
.	.	.	.	.	16gg\KL	.	.	.	.	.	.
.	.	.	.	.	(32qqaa/LLL	.	.	.	.	.	.
.	.	.	.	.	32qqgg/	.	.	.	.	.	.
.	.	.	.	.	32qqff#/JJJ)	.	.	.	.	.	.
8BB/J	.	.	[8g/J	.	8ggT\J	.	.	.	.	.	.
=2	=2	=2	=2	=2	=2	=2	=2	=2	=2	=2	=2
.	.	.	.	.	8qqb/	.	.	.	.	.	.
8C/L	6 3	.	8g/L]	.	8.a\L	.	.	.	1ryy	1ryy	1ryy
8C/	.	.	(8e/	.	.	.	.	.	.	.	.
.	.	.	.	.	16gg\Jk	.	.	.	.	.	.
8D/	.	.	8f#/)	.	(16ff#t\LL	.	.	.	.	.	.
.	.	.	.	.	16ee\)	.	.	.	.	.	.
8D/J	7	.	8a|/J	.	(16ddT\	.	.	.	.	.	.
.	.	.	.	.	16cc\JJ)	.	.	.	.	.	.
.	.	.	8qqb/	.	8qqdd/	.	.	.	.	.	.
8E/L	5	.	(16a/LL	.	16ccT\LL	.	.	.	.	.	.
.	.	.	16g/J)	.	(16b\J	.	.	.	.	.	.
16.D/L	.	.	8g|/J	.	8b|\J)	.	.	.	.	.	.
32C/JJk	.	.	.	.	.	.	.	.	.	.	.
8BB/L	6	.	8d/L	.	16r	.	.	.	.	.	.
.	.	.	.	.	16gg\KL	.	.	.	.	.	.
.	.	.	.	.	(32qqaa/LLL	.	.	.	.	.	.
.	.	.	.	.	32qqgg/	.	.	.	.	.	.
.	.	.	.	.	32qqff#/JJJ)	.	.	.	.	.	.
8BB/J	.	.	[8g/J	.	8ggT\J	.	.	.	.	.	.
=3	=3	=3	=3	=3	=3	=3	=3	=3	=3	=3	=3
.	.	.	.	.	8qqb/	.	.	.	.	.	.
8C/L	6 5	.	8g/L]	.	8.a\L	.	.	.	1ryy	1ryy	1ryy
8C/	.	.	(8e/	.	.	.	.	.	.	.	.
.	.	.	.	.	16gg\Jk	.	.	.	.	.	.
8D/	.	.	8f#/)	.	(16ff#t\LL	.	.	.	.	.	.
.	.	.	.	.	16ee\)	.	.	.	.	.	.
8D/J	7	.	8a|/J	.	(16ddT\	.	.	.	.	.	.
.	.	.	.	.	16cc\JJ)	.	.	.	.	.	.
8G\L	.	.	16g|/LL	.	(16b\KL	.	.	.	.	.	.
.	.	.	(16d~/	.	8dd\)	.	.	.	.	.	.
8c\	4 2	.	16d~/	.	.	.	.	.	.	.	.
.	.	.	16d~/JJ	.	16f#|\Jk	.	.	.	.	.	.
8B\	6	.	16d~/LL	.	(16g/LL	.	.	.	.	.	.
.	.	.	16d~/	.	16d/JJ)	.	.	.	.	.	.
8F#\J	6 5	.	16d~/	.	16r	.	.	.	.	.	.
.	.	.	16d~/JJ)	.	16cc|\	.	.	.	.	.	.
!LO:LB:g=original	!	!	!	!	!	!	!	!	!	!	!
=4	=4	=4	=4	=4	=4	=4	=4	=4	=4	=4	=4
8G\L	.	.	(16d~/LL	.	(16b\KL	.	.	.	1ryy	1ryy	1ryy
.	.	.	16d~/	.	8dd\)	.	.	.	.	.	.
8c\	4 2	.	16d~/	.	.	.	.	.	.	.	.
.	.	.	16d~/JJ	.	16f#\Jk	.	.	.	.	.	.
8B\	6	.	16d~/LL	.	(16g/LL	.	.	.	.	.	.
.	.	.	16d~/	.	16d/JJ)	.	.	.	.	.	.
8A\J	6 5	.	16d~/	.	16r	.	.	.	.	.	.
.	.	.	16d~/JJ)	.	16cc|\	.	.	.	.	.	.
!	!	!	!	!	!LO:TUP:a:problem=klamra łukowa	!	!	!	!	!	!
8G\L	.	.	8.g/L	.	24b\LL	.	.	.	.	.	.
.	.	.	.	.	24cc\	.	.	.	.	.	.
.	.	.	.	.	24dd\JJ	.	.	.	.	.	.
*	*	*	*	*	*Xtuplet	*	*	*	*	*	*
8c\J	6 5	.	.	.	24e|/LL	.	.	.	.	.	.
.	.	.	.	.	24cc|/	.	.	.	.	.	.
.	.	.	32e/LL	.	.	.	.	.	.	.	.
.	.	.	.	.	24a|/JJ	.	.	.	.	.	.
.	.	.	32c/JJJ	.	.	.	.	.	.	.	.
8d\L	6 4	.	8B/L	.	8g/L	.	.	.	.	.	.
8D\J	7 3	.	8AT/J	.	8f#t/J	.	.	.	.	.	.
!	!	!	!LO:LB:g=original	!	!	!	!	!	!	!	!
=5	=5	=5	=5	=5	=5	=5	=5	=5	=5	=5	=5
8G\L	3	.	16B|/LL	.	16b/KL	.	1r	.	1ryy	1ryy	1ryy
.	.	.	(16B/	.	8d/	.	.	.	.	.	.
8F#\	6 5	.	16c/	.	.	.	.	.	.	.	.
.	.	.	16A/JJ)	.	16d|/Jk	.	.	.	.	.	.
8G\	3	.	8B/L	.	(16d/LL	.	.	.	.	.	.
.	.	.	.	.	16g/	.	.	.	.	.	.
8C\J	4 2	.	8A/J	.	16g/	.	.	.	.	.	.
.	.	.	.	.	16f#/JJ)	.	.	.	.	.	.
!LO:TX:t=P:problem=mixed beam	!	!	!	!	!	!	!	!	!	!	!
8BB/L	6	.	(16G/LL	.	(16g/KL	.	.	.	.	.	.
.	.	.	16B/	.	8d/)	.	.	.	.	.	.
8F#\	6 5	.	16c/	.	.	.	.	.	.	.	.
.	.	.	16A/JJ)	.	16d|/Jk	.	.	.	.	.	.
8G\	3	.	8B/L	.	(16d/LL	.	.	.	.	.	.
.	.	.	.	.	16g/)	.	.	.	.	.	.
8C\J	4 2	.	8A/J	.	(16g/	.	.	.	.	.	.
.	.	.	.	.	16f#/JJ)	.	.	.	.	.	.
!	!	!	!	!	!LO:LB:g=original	!	!	!	!	!	!
=6	=6	=6	=6	=6	=6	=6	=6	=6	=6	=6	=6
*	*	*	*Xtuplet	*	*	*	*	*	*	*	*
!	!	!	!	!	!	!LO:DY:b:t=for	!	!	!	!	!
16BB|/LL	6	.	24B|/LL	.	24g/LL	f	2r	.	1ryy	1ryy	1ryy
.	.	.	24d|/	.	24d/	.	.	.	.	.	.
16D|/	.	.	.	.	.	.	.	.	.	.	.
.	.	.	24c|/JJ	.	24c/JJ	.	.	.	.	.	.
16BB|/	.	.	24B/LL	.	24B/LL	.	.	.	.	.	.
.	.	.	24A/	.	24A/	.	.	.	.	.	.
16GG|/JJ	.	.	.	.	.	.	.	.	.	.	.
.	.	.	24G/JJ	.	24G/JJ	.	.	.	.	.	.
8C/L	6 5	.	16.cT/LL	.	16.cT/LL	.	.	.	.	.	.
.	.	.	(64B/LL	.	(64B/LL	.	.	.	.	.	.
.	.	.	64c/JJJJ)	.	64c/JJJJ)	.	.	.	.	.	.
8D/J	7	.	16.dT/LL	.	16.dT/LL	.	.	.	.	.	.
.	.	.	(64c/LL	.	(64c/LL	.	.	.	.	.	.
.	.	.	64d/JJJJ)	.	64d/JJJJ)	.	.	.	.	.	.
8GG/L	.	.	8G/L	.	8G/L	.	4r	.	.	.	.
*	*	*	*tuplet	*	*tuplet	*	*	*	*	*	*
!	!	!	!LO:TUP:b:problem=klamra łukowa	!	!LO:TUP:b:problem=klamra łukowa	!	!	!	!	!	!
8G|\J	.	.	24g/L	.	24g/L	.	.	.	.	.	.
.	.	.	24f#/	.	24f#/	.	.	.	.	.	.
.	.	.	24g/JJ	.	24g/JJ	.	.	.	.	.	.
4GG/	.	.	8G/	.	8G/L	.	8r	.	.	.	.
!	!	!	!	!	!	!LO:DY:b:	!	!	!	!	!
.	.	.	8r	.	16.g/L	p	16.G\	Be-	.	.	.
.	.	.	.	.	32f#/JJk	.	32F#\	-ne-	.	.	.
=7	=7	=7	=7	=7	=7	=7	=7	=7	=7	=7	=7
.	.	.	.	.	8qqa/	.	8qqA/	.	.	.	.
!	!	!	!	!LO:DY:b:rj:t=p&colon;	!LO:TUP:b:problem=klamra łukowa	!	!LO:TUP:a:problem=klamra łukowa	!	!	!	!
8r	.	.	(>16dLL 16B~>/	p	24g/LL	.	24G\LL	-di-	1ryy	1ryy	1ryy
.	.	.	.	.	24f#/	.	24F#\	.	.	.	.
.	.	.	16d 16B/	.	.	.	.	.	.	.	.
.	.	.	.	.	24g/J	.	24G\JJ	.	.	.	.
16.G\LL	.	.	16d 16B~>/	.	8d/J	.	8D/	-ctus	.	.	.
.	.	.	16dJJ 16B~>/	.	.	.	.	.	.	.	.
32F#\JJk	.	.	.	.	.	.	.	.	.	.	.
!LO:TX:t=P:problem=mixed beam	!	!	!	!	!	!	!	!	!	!	!
8G\L	.	.	16dLL 16B/	.	8r	.	8r	.	.	.	.
.	.	.	16d 16B~>/	.	.	.	.	.	.	.	.
!	!	!	!	!	!LO:TUP:a:problem=klamra łukowa	!	!	!	!	!	!
8GG/J	.	.	16d 16B/	.	24b\LL	.	(32B\LLL	be-	.	.	.
.	.	.	.	.	.	.	32d\JJJ)	.	.	.	.
.	.	.	.	.	24dd\	.	.	.	.	.	.
.	.	.	16dJJ 16B~>/	.	.	.	16c\	-ne-	.	.	.
.	.	.	.	.	24cc\JJ	.	.	.	.	.	.
.	.	.	.	.	8qqcc/	.	8qqc/	.	.	.	.
!	!	!	!	!	!LO:TUP:a:problem=klamra łukowa	!	!LO:TUP:a:problem=klamra łukowa	!	!	!	!
8GG/L	.	.	16dLL 16B~>/	.	24b/LL	.	24B\LL	-di-	.	.	.
.	.	.	.	.	24a/	.	24A\	.	.	.	.
.	.	.	16d 16B~>/	.	.	.	.	.	.	.	.
.	.	.	.	.	24g/J	.	24G\JJ	.	.	.	.
8GG/	.	.	16d 16B~>/	.	8g|/J	.	8G\	-ctus	.	.	.
.	.	.	16dJJ 16B~>/	.	.	.	.	.	.	.	.
8BB/	6	.	8d/L)	.	[4gg\	.	8r	.	.	.	.
8BB/J	.	.	8d/J	.	.	.	8d\	qvi	.	.	.
!LO:LB:g=original	!	!	!	!	!	!	!LO:LB:g=original	!	!	!	!
=8	=8	=8	=8	=8	=8	=8	=8	=8	=8	=8	=8
8C/L	.	.	8e/L	.	4gg\]	.	4E\	ve-	1ryy	1ryy	1ryy
8C/	.	.	8e/	.	.	.	.	.	.	.	.
8C/	6	.	8e/	.	(16ffn\LL	.	16d\LL	.	.	.	.
.	.	.	.	.	16ee\)	.	(16c\	.	.	.	.
8C/J	.	.	8e/J	.	(16dd\	.	16B\)	.	.	.	.
.	.	.	.	.	16cc\JJ)	.	16A\JJ	.	.	.	.
.	.	.	.	.	8qqb/	.	8qqG/	.	.	.	.
8D/L	.	.	8d/L	.	8a/L	.	8F#\	.	.	.	.
8GG/	6	.	8d/	.	8b/J	.	8G\	-nit	.	.	.
8BB/	.	.	8d/	.	[4g/	.	8r	.	.	.	.
8GG/J	.	.	8B/J	.	.	.	8d\	in	.	.	.
!	!	!	!LO:LB:g=original	!	!	!	!	!	!	!	!
=9	=9	=9	=9	=9	=9	=9	=9	=9	=9	=9	=9
8C/L	5	.	8e/L	.	4g/]	.	4E\	no-	1ryy	1ryy	1ryy
8C/	.	.	8e/	.	.	.	.	.	.	.	.
8C/	.	.	8e/	.	(16fn/LL	.	(16d\LL	-mi-	.	.	.
.	.	.	.	.	16e/	.	16c\JJ)	.	.	.	.
8C/J	6	.	8e/J	.	16d/	.	(16B\LL	-ne	.	.	.
.	.	.	.	.	16c/JJ)	.	16A\JJ)	.	.	.	.
.	.	.	.	.	.	.	8qqG/	.	.	.	.
8D\L	.	.	8d/L	.	8A/L	.	16F#\	Do-	.	.	.
.	.	.	.	.	.	.	16F#\	-mi-	.	.	.
8G\J	.	.	8d/J	.	8B/J	.	8G\	-ni	.	.	.
4GG/	.	.	8gg 8b 8d 8G/	.	8gg 8b 8d 8G/	.	8r	.	.	.	.
.	.	.	8r	.	8r	.	(16B\LL	ve-	.	.	.
.	.	.	.	.	.	.	16c#X\JJ)	.	.	.	.
=10	=10	=10	=10	=10	=10	=10	=10	=10	=10	=10	=10
8r	.	.	8r	.	8r	.	4d\	-nit	1ryy	1ryy	1ryy
!	!	!	!	!	!LO:TUP:b:problem=klamra łukowa	!	!	!	!	!	!
8F#\	6 5	.	8d/L	.	24a/LL	.	.	.	.	.	.
.	.	.	.	.	24b/	.	.	.	.	.	.
.	.	.	.	.	24cc/JJ	.	.	.	.	.	.
4G\	3	.	8d/J	.	8b/	.	8r	.	.	.	.
.	.	.	8r	.	8r	.	(16B\LL	in	.	.	.
.	.	.	.	.	.	.	16c#X\JJ)	.	.	.	.
*	*	*	*	*	*	*	*2\right	*	*	*	*
8r	.	.	8r	.	8r	.	[2d\	no-	.	.	.
!	!	!	!	!	!LO:TUP:b:problem=klamra łukowa	!	!	!	!	!	!
8F#\L	6 5	.	8d/L	.	24a/LL	.	.	.	.	.	.
.	.	.	.	.	24b/	.	.	.	.	.	.
.	.	.	.	.	24cc/JJ	.	.	.	.	.	.
!	!	!	!	!	!LO:LB:g=original	!	!	!	!	!	!
8G\	3	.	8d/	.	8b/L	.	.	.	.	.	.
!	!	!	!	!	!LO:TUP:b:problem=klamra łukowa	!	!	!	!	!	!
8F#\J	6 5	.	8d/J	.	24a/L	.	.	.	.	.	.
.	.	.	.	.	24b/	.	.	.	.	.	.
.	.	.	.	.	24cc/JJ	.	.	.	.	.	.
=11	=11	=11	=11	=11	=11	=11	=11	=11	=11	=11	=11
4G\	3	.	(8.d/L	.	(4b\	.	16d\LL]	.	1ryy	1ryy	1ryy
.	.	.	.	.	.	.	16B\JJ	.	.	.	.
.	.	.	.	.	.	.	16A\	-mi-	.	.	.
.	6	.	16e/Jk)	.	.	.	16G\	-ne	.	.	.
8A/L	6 4	.	8f#/L	.	8dd\L)	.	8F#t\	Do-	.	.	.
!	!	!	!	!	!	!	!LO:LB:g=original	!	!	!	!
8AA/J	7 #	.	8eT/J	.	8cc#Xt\J	.	16G\	-mi-	.	.	.
.	.	.	.	.	.	.	16E|\	-ni	.	.	.
4D/	.	.	(32f#/LLL	.	(32dd\LLL	.	8D/	in	.	.	.
.	.	.	32g/	.	32ee\	.	.	.	.	.	.
.	.	.	32a/	.	32ff#\	.	.	.	.	.	.
.	.	.	32g/JJJ)	.	32ee\J)	.	.	.	.	.	.
.	.	.	(16f#~/LL	.	16dd\	.	(32d\LLL	no-	.	.	.
.	.	.	.	.	.	.	32e\	.	.	.	.
.	.	.	16f#~/JJ	.	(16dd'\JJ	.	32f#\	.	.	.	.
.	.	.	.	.	.	.	32e\JJJ)	.	.	.	.
8r	.	.	16f#~/LL	.	16dd~\LL	.	8d\	.	.	.	.
.	.	.	16f#~/	.	16dd~\	.	.	.	.	.	.
8C#X/	4 2	.	16f#~/	.	16dd~\	.	8C#Xt/	.	.	.	.
.	.	.	16f#~/JJ)	.	16dd~\JJ)	.	.	.	.	.	.
=12	=12	=12	=12	=12	=12	=12	=12	=12	=12	=12	=12
4BB/	5	.	(32f#/LLL	.	(32dd\LLL	.	8BB/	.	1ryy	1ryy	1ryy
.	.	.	32g/	.	32ee\	.	.	.	.	.	.
.	.	.	32a/	.	32ff#\	.	.	.	.	.	.
.	.	.	32g/JJJ)	.	32ee\J	.	.	.	.	.	.
.	.	.	(16f#/LL	.	16dd'\)	.	(32d\LLL	.	.	.	.
.	.	.	.	.	.	.	32e\	.	.	.	.
.	.	.	16f#~/JJ	.	(16dd~\JJ	.	32f#\	.	.	.	.
.	.	.	.	.	.	.	32e\JJJ)	.	.	.	.
8r	.	.	16f#~/LL	.	16dd~\LL	.	8d\	.	.	.	.
.	.	.	16f#~/	.	16dd~\	.	.	.	.	.	.
8F#\	6	.	16f#~/	.	16dd~\	.	8F#t\	.	.	.	.
.	.	.	16f#~/JJ)	.	16dd~\JJ)	.	.	.	.	.	.
!	!	!	!	!	!	!	!LO:TUP:a:problem=klamra łukowa	!	!	!	!
4G\	6 5	.	(16e~/LL	.	16dd|\LL	.	24G\LL	.	.	.	.
.	.	.	.	.	.	.	24F#\	.	.	.	.
.	.	.	16e~/	.	(16dd~\	.	.	.	.	.	.
.	.	.	.	.	.	.	24G\JJ	.	.	.	.
.	.	.	16e~/	.	16dd~\	.	(32E\LLL	-mi-	.	.	.
.	.	.	.	.	.	.	32F#\JJJ	.	.	.	.
.	.	.	16e~/JJ	.	16dd~\JJ	.	16G\)	-ne	.	.	.
!LO:TX:t=P:problem=mixed beam	!	!	!	!	!	!	!	!	!	!	!
8A\L	5 4	.	16e~/LL	.	16dd\LL	.	8.AT\	Do-	.	.	.
.	.	.	16e~/	.	16dd~\	.	.	.	.	.	.
8AA/J	x #	.	16e~/	.	16cc#X~\	.	.	.	.	.	.
.	.	.	16e~/JJ)	.	16cc#\JJ)	.	16A\	-mi-	.	.	.
!LO:LB:g=original	!	!	!	!	!	!	!	!	!	!	!
=13	=13	=13	=13	=13	=13	=13	=13	=13	=13	=13	=13
*	*	*	*^	*	*	*	*	*	*	*	*
!	!	!	!	!	!	!	!LO:DY:b:t=for	!	!	!	!	!
.	.	.	.	.	.	8qqee/	f	.	.	.	.	.
!	!	!	!	!	!LO:DY:b:rj:t=f&colon;	!LO:TUP:a:problem=klamra łukowa	!	!	!	!	!	!
8D\L	.	.	(16a~/LL	16f#\LL	f	24dd\LL	.	4D/	-ni	1ryy	1ryy	1ryy
.	.	.	.	.	.	24cc#X\	.	.	.	.	.	.
.	.	.	16a~/	16f#\	.	.	.	.	.	.	.	.
.	.	.	.	.	.	24dd\J	.	.	.	.	.	.
16.d\L	.	.	16a~/	16f#\	.	8a|\J	.	.	.	.	.	.
.	.	.	16a/JJ)	16f#\JJ	.	.	.	.	.	.	.	.
32c#X\JJk	.	.	.	.	.	.	.	.	.	.	.	.
8d\L	.	.	(16a/LL	16f#\LL	.	8r	.	4r	.	.	.	.
.	.	.	16a~/	16f#\	.	.	.	.	.	.	.	.
!	!	!	!	!	!	!LO:TUP:a:problem=klamra łukowa	!	!	!	!	!	!
8D\J	.	.	16a/	16f#\	.	24ff#\LL	.	.	.	.	.	.
.	.	.	.	.	.	24aa\	.	.	.	.	.	.
.	.	.	16a~/JJ)	16f#\JJ	.	.	.	.	.	.	.	.
.	.	.	.	.	.	24gg\JJ	.	.	.	.	.	.
.	.	.	.	.	.	8qqgg/	.	.	.	.	.	.
!	!	!	!	!	!	!LO:TUP:a:problem=klamra łukowa	!	!	!	!	!	!
8D\L	.	.	(16a~/LL	16f#\LL	.	24ff#\LL	.	2r	.	.	.	.
.	.	.	.	.	.	24ee\	.	.	.	.	.	.
.	.	.	16a/	16f#\	.	.	.	.	.	.	.	.
.	.	.	.	.	.	24dd\J	.	.	.	.	.	.
8D\	6	.	16a/	16f#\	.	8dd|\J	.	.	.	.	.	.
.	.	.	16a~/JJ)	16f#\JJ	.	.	.	.	.	.	.	.
8F#\	.	.	8a\L	4ryy	.	16r	.	.	.	.	.	.
.	.	.	.	.	.	(16ccc\LL	.	.	.	.	.	.
8F#\J	.	.	8dd\J	.	.	16ccc#X\)	.	.	.	.	.	.
.	.	.	.	.	.	16ddd\JJ	.	.	.	.	.	.
*	*	*	*v	*v	*	*	*	*	*	*	*	*
!	!	!	!LO:LB:g=original	!	!	!	!	!	!	!	!
=14	=14	=14	=14	=14	=14	=14	=14	=14	=14	=14	=14
.	.	.	.	.	8qqff#/	.	.	.	.	.	.
8G\L	6 5	.	8dd\L	.	8.ee\L	.	00r	.	1ryy	1ryy	1ryy
8G\	.	.	(8b\	.	.	.	.	.	.	.	.
.	.	.	.	.	16ddd\Jk	.	.	.	.	.	.
8A\	#	.	8cc#X\)	.	16ccc#X\LL	.	.	.	.	.	.
.	.	.	.	.	(16bb\	.	.	.	.	.	.
8A\J	.	.	8ee|\J	.	16aa\)	.	.	.	.	.	.
.	.	.	.	.	16gg\JJ	.	.	.	.	.	.
.	.	.	8qqff#/	.	8qqaa/	.	.	.	.	.	.
8B\L	5	.	(16ee\LL	.	(16gg\LL	.	.	.	.	.	.
.	.	.	16dd\J)	.	16ff#\J)	.	.	.	.	.	.
16.A\L	.	.	8cc#|\J	.	8ff#|\J	.	.	.	.	.	.
32G\JJk	.	.	.	.	.	.	.	.	.	.	.
!	!	!	!	!	!LO:TX:b:i:t=Volti	!	!	!	!	!	!
8F#\L	6	.	8a\L	.	16r	.	.	.	.	.	.
!	!	!	!	!	!LO:PB:g=original	!	!	!	!	!	!
.	.	.	.	.	(16ddd\LL	.	.	.	.	.	.
8F#\J	.	.	(8dd\J	.	16ccc#X\	.	.	.	.	.	.
.	.	.	.	.	16ddd\JJ)	.	.	.	.	.	.
=15	=15	=15	=15	=15	=15	=15	=15	=15	=15	=15	=15
.	.	.	.	.	8qqff#/	.	.	.	.	.	.
8G\L	6 5	.	8dd\L)	.	8.ee\L	.	.	.	1ryy	1ryy	1ryy
8G\	.	.	(8b\	.	.	.	.	.	.	.	.
.	.	.	.	.	16ddd\Jk	.	.	.	.	.	.
8A\	#	.	8cc#X\)	.	(16ccc#X\LL	.	.	.	.	.	.
.	.	.	.	.	16bb\	.	.	.	.	.	.
8A\J	7	.	8ee|\J	.	16aa\	.	.	.	.	.	.
.	.	.	.	.	16gg\JJ)	.	.	.	.	.	.
8D\L	3	.	16dd|\LL	.	(16gg\KL	.	.	.	.	.	.
.	.	.	(16a~\	.	8aa\)	.	.	.	.	.	.
8G\	4 2	.	16a~\	.	.	.	.	.	.	.	.
.	.	.	16a~\JJ	.	16cc#X|\Jk	.	.	.	.	.	.
8F#\	.	.	16a~\LL	.	(16dd\LL	.	.	.	.	.	.
.	.	.	16a~\	.	16a\JJ)	.	.	.	.	.	.
8C#X\J	6 5	.	16a~\	.	16r	.	.	.	.	.	.
.	.	.	16a~\JJ)	.	16gg|\	.	.	.	.	.	.
=16	=16	=16	=16	=16	=16	=16	=16	=16	=16	=16	=16
8D\L	3	.	(16a~/LL	.	(16ff#\KL	.	.	.	1ryy	1ryy	1ryy
.	.	.	16a~/	.	8aa\	.	.	.	.	.	.
8G\	4 2	.	16a~/	.	.	.	.	.	.	.	.
.	.	.	16a~/JJ	.	16cc#X|\Jk)	.	.	.	.	.	.
8F#\	6	.	16a~/LL	.	(16dd\LL	.	.	.	.	.	.
.	.	.	16a~/	.	16a\JJ)	.	.	.	.	.	.
8C#X\J	6 5	.	16a~/	.	16r	.	.	.	.	.	.
.	.	.	16a~/JJ)	.	16gg|\	.	.	.	.	.	.
!LO:TX:t=P:problem=mixed beam	!	!	!	!	!LO:TUP:a:problem=klamra łukowa	!	!	!	!	!	!
8D\L	3	.	8.dd\L	.	24ff#\LL	.	.	.	.	.	.
.	.	.	.	.	24gg\	.	.	.	.	.	.
.	.	.	.	.	24aa\JJ	.	.	.	.	.	.
!	!	!	!	!	!LO:TUP:a:problem=klamra łukowa	!	!	!	!	!	!
8G\	6 5	.	.	.	24b\LL	.	.	.	.	.	.
.	.	.	.	.	24gg\	.	.	.	.	.	.
.	.	.	32b\LL	.	.	.	.	.	.	.	.
.	.	.	.	.	24ee\JJ	.	.	.	.	.	.
.	.	.	32g\JJJ	.	.	.	.	.	.	.	.
8A\	6 4	.	8f#/L	.	8dd\L	.	.	.	.	.	.
8AA\J	7 #	.	8eT/J	.	8cc#Xt\J	.	.	.	.	.	.
!LO:LB:g=original	!	!	!	!	!	!	!	!	!	!	!
=17	=17	=17	=17	=17	=17	=17	=17	=17	=17	=17	=17
!LO:TX:t=P:problem=brzeg karty zaklejony, nuty niewidoczne	!	!	!	!	!	!	!	!	!	!	!
8D\L	.	.	16f#|/LL	.	(16dd\KL	.	.	.	1ryy	1ryy	1ryy
.	.	.	(16f#/	.	8a\)	.	.	.	.	.	.
8C#X\	6 5	.	16g/	.	.	.	.	.	.	.	.
.	.	.	16e/JJ)	.	16a|\Jk	.	.	.	.	.	.
8D\	3	.	8f#/L	.	(16a\LL	.	.	.	.	.	.
.	.	.	.	.	16dd\)	.	.	.	.	.	.
8G\J	2	.	8e/J	.	(16dd\	.	.	.	.	.	.
.	.	.	.	.	16cc#X\JJ)	.	.	.	.	.	.
!	!	!	!	!	!	!LO:DY:b:t=p&colon;	!	!	!	!	!
8F#\L	6	.	(16d/LL	.	(16dd\KL	p	.	.	.	.	.
.	.	.	16f#/	.	8a\)	.	.	.	.	.	.
8C#X\	6 5	.	16g/	.	.	.	.	.	.	.	.
.	.	.	16e/JJ)	.	16a|\Jk	.	.	.	.	.	.
8D\	3	.	8f#/L	.	(16a\LL	.	.	.	.	.	.
.	.	.	.	.	16dd\)	.	.	.	.	.	.
8G\J	4 2	.	8e/J	.	(16dd\	.	.	.	.	.	.
.	.	.	.	.	16cc#X\JJ)	.	.	.	.	.	.
!	!	!	!	!	!	!	!LO:LB:g=original	!	!	!	!
=18	=18	=18	=18	=18	=18	=18	=18	=18	=18	=18	=18
*	*	*	*Xtuplet	*	*Xtuplet	*	*	*	*	*	*
!	!	!	!	!	!	!LO:DY:b:t=for	!	!	!	!	!
16F#\LL	6	.	24f#|/LL	.	24dd|\LL	f	2r	.	1ryy	1ryy	1ryy
.	.	.	24a|/	.	24a|\	.	.	.	.	.	.
16A|\	.	.	.	.	.	.	.	.	.	.	.
.	.	.	24g|/JJ	.	24g|\JJ	.	.	.	.	.	.
16F#|\	.	.	24f#|/LL	.	24f#|/LL	.	.	.	.	.	.
.	.	.	24e|/	.	24e|/	.	.	.	.	.	.
16D|\JJ	.	.	.	.	.	.	.	.	.	.	.
.	.	.	24d|/JJ	.	24d|/JJ	.	.	.	.	.	.
8GG/L	.	.	16.gT/LL	.	16.gT/LL	.	.	.	.	.	.
.	.	.	(64f#/LL	.	(64f#/LL	.	.	.	.	.	.
.	.	.	64g/JJJJ)	.	64g/JJJJ)	.	.	.	.	.	.
!	!	!	!	!	!LO:LB:g=original	!	!	!	!	!	!
8AA/J	#	.	16.aT/LL	.	16.aT/LL	.	.	.	.	.	.
.	.	.	(64g/LL	.	(64g/LL	.	.	.	.	.	.
.	.	.	64a/JJJJ)	.	64a/JJJJ)	.	.	.	.	.	.
!	!	!	!LO:LB:g=original	!	!LO:TX:t=P:problem=mixed beam	!	!	!	!	!	!
8D\L	.	.	8d/L	.	8d/L	.	4r	.	.	.	.
.	.	.	8qqee/	.	8qqee/	.	.	.	.	.	.
*	*	*	*tuplet	*	*tuplet	*	*	*	*	*	*
!	!	!	!LO:TUP:a:problem=klamra łukowa	!	!LO:TUP:a:problem=klamra łukowa	!	!	!	!	!	!
8d\J	.	.	24dd\L	.	24dd\L	.	.	.	.	.	.
.	.	.	24cc#X\	.	24cc#X\	.	.	.	.	.	.
.	.	.	24dd\JJ	.	24dd\JJ	.	.	.	.	.	.
8D\	.	.	8d/	.	8d/	.	8r	.	.	.	.
8r	.	.	8r	.	8r	.	32B\LLL	Be-	.	.	.
.	.	.	.	.	.	.	(32A\	.	.	.	.
.	.	.	.	.	.	.	32G\)	.	.	.	.
.	.	.	.	.	.	.	32F#\JJJ	.	.	.	.
=19	=19	=19	=19	=19	=19	=19	=19	=19	=19	=19	=19
.	.	.	.	.	.	.	8qqE/	.	.	.	.
!	!	!	!	!LO:DY:a:t=pia	!	!LO:DY:a:t=p&colon;	!	!	!	!	!
8D/L	.	.	(16d~/LL	p	16f#/LL	p	[4D\	.	1ryy	1ryy	1ryy
.	.	.	16d~/	.	(16f#~/	.	.	.	.	.	.
8D/	.	.	16d~/	.	16f#~/	.	.	.	.	.	.
.	.	.	16d~/JJ	.	16f#~/JJ	.	.	.	.	.	.
8D/	.	.	16d~/LL	.	16f#~/LL	.	32D\LLL]	.	.	.	.
.	.	.	.	.	.	.	(32E\	-ne-	.	.	.
.	.	.	16d~/	.	16f#~/	.	32F#\	.	.	.	.
.	.	.	.	.	.	.	32G\JJJ)	.	.	.	.
8D/J	.	.	16d~/	.	16f#~/	.	(32A\LLL	.	.	.	.
.	.	.	.	.	.	.	32B\	.	.	.	.
.	.	.	16d~/JJ)	.	16f#~/JJ)	.	32c#X\)	.	.	.	.
.	.	.	.	.	.	.	32d\JJJ	.	.	.	.
*	*	*	*tremolo	*	*	*	*	*	*	*	*
8D/L	#7r 2	.	16e/LL	.	16g~/LL	.	(16d\LL	-di-	.	.	.
.	.	.	16e/	.	(16g~/	.	16c#X\JJ)	.	.	.	.
8D/	.	.	16e/	.	16g~/	.	8c#\	-ctus	.	.	.
.	.	.	16e/	.	16g~/JJ	.	.	.	.	.	.
8D/	.	.	16e/	.	16g~/LL	.	8r	.	.	.	.
.	.	.	16e/	.	16g~/	.	.	.	.	.	.
8D/J	.	.	16e/	.	16g~/	.	8cn\	qvi	.	.	.
.	.	.	16e/JJ	.	16g~/JJ)	.	.	.	.	.	.
=20	=20	=20	=20	=20	=20	=20	=20	=20	=20	=20	=20
8D/L	.	.	16f#/LL	.	(16a\LL	.	32c\LLL	ve-	1ryy	1ryy	1ryy
.	.	.	.	.	.	.	(32d\	.	.	.	.
.	.	.	16f#/	.	16aa\	.	32c\	.	.	.	.
.	.	.	.	.	.	.	32B\JJJ)	.	.	.	.
8D/	.	.	16f#/	.	16aa~\	.	32A\LLL	.	.	.	.
.	.	.	.	.	.	.	(32B\	.	.	.	.
.	.	.	16f#/	.	16aa\JJ	.	32A\	.	.	.	.
.	.	.	.	.	.	.	32G\JJJ)	.	.	.	.
8D/	.	.	16f#/	.	16aa~\LL	.	32F#\LLL	.	.	.	.
.	.	.	.	.	.	.	(32G\	.	.	.	.
.	.	.	16f#/	.	16aa~\	.	32F#\	.	.	.	.
.	.	.	.	.	.	.	32E\JJJ)	.	.	.	.
8D/J	.	.	16f#/	.	16aa~\	.	16.D\LL	.	.	.	.
.	.	.	16f#/JJ	.	16aa\JJ)	.	.	.	.	.	.
.	.	.	.	.	.	.	16c\JJ	.	.	.	.
!LO:TX:t=P:problem=mixed beam	!	!	!	!	!	!	!	!	!	!	!
8G\L	4 9	.	16d/LL	.	(16aa\LL	.	.	.	.	.	.
.	.	.	.	.	.	.	8qqd/	.	.	.	.
.	.	.	.	.	.	.	8c\	.	.	.	.
.	.	.	16d/	.	16ff#\J)	.	.	.	.	.	.
.	.	.	.	.	8qqff#/	.	.	.	.	.	.
8GG/	3 8	.	16d/	.	8gg\J	.	.	.	.	.	.
.	.	.	.	.	.	.	8B\	-nit	.	.	.
.	.	.	16d/	.	.	.	.	.	.	.	.
8G\	.	.	16d/	.	4gg 4b 4d 4G/	.	.	.	.	.	.
.	.	.	.	.	.	.	8r	.	.	.	.
.	.	.	16d/	.	.	.	.	.	.	.	.
8G\J	2	.	16d/	.	.	.	.	.	.	.	.
!	!	!	!	!	!	!	!LO:TX:t=P:problem=brzeg karty zaklejony, nuty niewidoczne	!	!	!	!
.	.	.	.	.	.	.	16.B\yy	in	.	.	.
.	.	.	16d/JJ	.	.	.	.	.	.	.	.
*	*	*	*Xtremolo	*	*	*	*	*	*	*	*
!LO:LB:g=original	!	!	!	!	!	!	!LO:PB:g=original	!	!	!	!
=21	=21	=21	=21	=21	=21	=21	=21	=21	=21	=21	=21
!LO:TX:t=P:problem=brzeg karty zaklejony, nuty niewidoczne	!	!	!	!	!	!	!	!	!	!	!
8E\L	.	.	8e/L	.	8gg\L	.	(16c\LL	no-	1ryy	1ryy	1ryy
.	.	.	.	.	.	.	16G\JJ)	.	.	.	.
8E\	.	.	8g/	.	8gg\J	.	16Fn\	-mi-	.	.	.
.	.	.	.	.	.	.	16E\	-ne	.	.	.
8E-X\	6	.	8g/	.	(32ff#\KLL	.	(4c#Xt\	Do-	.	.	.
.	.	.	.	.	16.gg\)	.	.	.	.	.	.
8E-\J	.	.	8g/J	.	(32ff#\K	.	.	.	.	.	.
.	.	.	.	.	16.gg\JJ)	.	.	.	.	.	.
8D\L	.	.	8a/L	.	8.ff#\L	.	16.d\)	.	.	.	.
.	.	.	.	.	.	.	32D/	-mi-	.	.	.
!	!	!	!LO:N:vis=8	!	!	!	!	!	!	!	!
8d\	.	.	(16f#/J	.	.	.	8D/	-ni	.	.	.
*	*	*	*Xbrackettup	*	*	*	*	*	*	*	*
!	!	!	!LO:TUP:b:problem=klamra łukowa	!	!	!	!	!	!	!	!
.	.	.	16f#/LL)	.	[16a\Jk	.	.	.	.	.	.
!	!	!	!	!	!LO:TUP:a:problem=klamra łukowa	!	!	!	!	!	!
8D\	7	.	24f#/	.	24a\LL]	.	8r	.	.	.	.
.	.	.	24g/	.	24a\	.	.	.	.	.	.
.	.	.	24b/	.	24b\	.	.	.	.	.	.
.	.	.	.	.	16qqdd/	.	.	.	.	.	.
8D\J	.	.	24a/	.	24cc\	.	8d\	qvi	.	.	.
.	.	.	24g/	.	24b\	.	.	.	.	.	.
.	.	.	24f#/JJ	.	24a\JJ	.	.	.	.	.	.
=22	=22	=22	=22	=22	=22	=22	=22	=22	=22	=22	=22
8G\L	.	.	16g|/LL	.	(16b\KL	.	[2dT\	ve-	1ryy	1ryy	1ryy
.	.	.	(16d~/	.	8dd\	.	.	.	.	.	.
8c\	2	.	16d~/	.	.	.	.	.	.	.	.
.	.	.	16d~/JJ	.	16f#|\Jk)	.	.	.	.	.	.
8B\	6	.	16d~/LL	.	(16g/LL	.	.	.	.	.	.
.	.	.	16d~/	.	16d/JJ)	.	.	.	.	.	.
8F#\J	6 5	.	16d~/	.	16r	.	.	.	.	.	.
.	.	.	16d~/JJ	.	16cc|\	.	.	.	.	.	.
*	*	*	*tremolo	*	*	*	*	*	*	*	*
8G\L	3	.	16d~/LL)	.	(16b\KL	.	4.d\]	-nit	.	.	.
.	.	.	16d~/	.	8dd\)	.	.	.	.	.	.
8c\	4 2	.	16d~/	.	.	.	.	.	.	.	.
.	.	.	16d~/	.	16f#|\Jk	.	.	.	.	.	.
!	!	!	!	!	!LO:LB:g=original	!	!	!	!	!	!
8B\	6	.	16d~/	.	(16g/LL	.	.	.	.	.	.
.	.	.	16d~/	.	16d/JJ)	.	.	.	.	.	.
8F#\J	7 5	.	16d~/	.	16r	.	8c\	in	.	.	.
.	.	.	16d~/JJ	.	16cc|\	.	.	.	.	.	.
*	*	*	*Xtremolo	*	*	*	*	*	*	*	*
=23	=23	=23	=23	=23	=23	=23	=23	=23	=23	=23	=23
!LO:TX:t=P:problem=mixed beam	!	!	!	!	!	!	!LO:TUP:a:problem=klamra łukowa	!	!	!	!
8G\L	.	.	(8d/L	.	8b\	.	24B\LL	no-	1ryy	1ryy	1ryy
.	.	.	.	.	.	.	24A\	.	.	.	.
.	.	.	.	.	.	.	24B\JJ	.	.	.	.
.	.	.	.	.	.	.	8qqd/	.	.	.	.
8C\	6	.	16e/L	.	4gg\	.	16c\LL	-mi-	.	.	.
.	.	.	.	.	.	.	8qqB/	.	.	.	.
.	.	.	16c/JJ)	.	.	.	16A\JJ	-ne	.	.	.
8D\	6 4	.	8B/L	.	.	.	(8G\	Do-	.	.	.
8DD/J	7 3	.	8AT/J	.	8ff#t\	.	16.F#\)	.	.	.	.
.	.	.	.	.	.	.	32G\	-mi-	.	.	.
!	!	!	!LO:TX:t=P:problem=mixed beam	!	!	!	!	!	!	!	!
.	.	.	.	.	8qqff#/	.	.	.	.	.	.
!LO:TX:t=P:problem=mixed beam	!	!	!	!	!	!	!LO:LB:g=original	!	!	!	!
8GG/L	.	.	8B/L	.	4gg\	.	4G\	-ni	.	.	.
16.G\L	.	.	16.b\L	.	.	.	.	.	.	.	.
32A\JJk	.	.	32cc\JJk	.	.	.	.	.	.	.	.
!LO:TX:t=P:problem=mixed beam	!	!	!	!	!	!	!	!	!	!	!
8B\L	6	.	[4dd\	.	4r	.	8r	.	.	.	.
8BB/J	.	.	.	.	.	.	8d\	qvi	.	.	.
!	!	!	!LO:LB:g=original	!	!	!	!	!	!	!	!
=24	=24	=24	=24	=24	=24	=24	=24	=24	=24	=24	=24
*	*	*	*	*	*2\right	*	*	*	*	*	*
!	!	!	!LO:TX:t=P:problem=brak zakończenia ligatury	!	!	!	!	!	!	!	!
8C/L	9	.	4dd\]	.	2ee\	.	16d\LL	Ve-	1ryy	1ryy	1ryy
.	.	.	.	.	.	.	16E\J	.	.	.	.
8BB/	.	.	.	.	.	.	[8E\J	.	.	.	.
*	*	*	*2\right	*	*	*	*	*	*	*	*
!	!	!	!	!	!	!	!LO:TUP:a:problem=klamra łukowa	!	!	!	!
8AA/	5	.	2cc\	.	.	.	24E\LL]	.	.	.	.
.	.	.	.	.	.	.	24F#\	.	.	.	.
.	.	.	.	.	.	.	24G\	.	.	.	.
8C/J	.	.	.	.	.	.	24A\	.	.	.	.
.	.	.	.	.	.	.	24B\	.	.	.	.
.	.	.	.	.	.	.	24c\JJ	.	.	.	.
8BB/L	9	.	.	.	2dd\	.	(16c\LL	.	.	.	.
.	.	.	.	.	.	.	16D\J)	.	.	.	.
8AA/	.	.	.	.	.	.	[8D\J	.	.	.	.
!	!	!	!	!	!	!	!LO:TUP:a:problem=klamra łukowa	!	!	!	!
8GG/	6 5	.	[<4b\	.	.	.	24D\LL]	.	.	.	.
.	.	.	.	.	.	.	24E\	.	.	.	.
.	.	.	.	.	.	.	24F#\	.	.	.	.
8AA/J	.	.	.	.	.	.	24G\	.	.	.	.
.	.	.	.	.	.	.	24A\	.	.	.	.
.	.	.	.	.	.	.	24B\JJ	.	.	.	.
=25	=25	=25	=25	=25	=25	=25	=25	=25	=25	=25	=25
8AA/L	6 5	.	4b/]	.	2ccT\	.	(16B\LL	.	1ryy	1ryy	1ryy
.	.	.	.	.	.	.	(16C\J)	.	.	.	.
8GG/	.	.	.	.	.	.	8BB\J)	.	.	.	.
!	!	!	!	!	!	!	!LO:TUP:a:problem=klamra łukowa	!	!	!	!
8FF#/	.	.	4a/	.	.	.	24C\LL	.	.	.	.
.	.	.	.	.	.	.	24D\	.	.	.	.
.	.	.	.	.	.	.	24E\	.	.	.	.
8AA/J	.	.	.	.	.	.	24F#\	.	.	.	.
.	.	.	.	.	.	.	24G\	.	.	.	.
.	.	.	.	.	.	.	24A\JJ	.	.	.	.
!LO:LB:g=original	!	!	!	!	!	!	!	!	!	!	!
8r	.	.	(32g/LLL	.	(32b\LLL	.	8BB/	nit	.	.	.
.	.	.	32a/	.	32cc\	.	.	.	.	.	.
.	.	.	32b/	.	32dd\	.	.	.	.	.	.
.	.	.	32a/JJJ)	.	32cc\J	.	.	.	.	.	.
!LO:TX:t=P:problem=brzeg karty zaklejony, nuty niewidoczne	!	!	!	!	!	!	!LO:LB:g=original	!	!	!	!
8ryy	.	.	(16g~/LL	.	16b\)	.	(32G\LLL	in	.	.	.
.	.	.	.	.	.	.	32A\	.	.	.	.
.	.	.	16g~/JJ	.	(16b~\JJ	.	32B\	.	.	.	.
.	.	.	.	.	.	.	32A\JJJ)	.	.	.	.
8ryy	.	.	16g~/LL	.	16b~\LL	.	8G\	no-	.	.	.
.	.	.	16g~/	.	16b~\	.	.	.	.	.	.
8BB/	6	.	16g~/	.	16b~\	.	8BBt/	.	.	.	.
.	.	.	16g~/JJ)	.	16b~\JJ)	.	.	.	.	.	.
=26	=26	=26	=26	=26	=26	=26	=26	=26	=26	=26	=26
4C/	7 5	.	(32b\LLL	.	(32gg\LLL	.	8C/	.	1ryy	1ryy	1ryy
.	.	.	32cc\	.	32aa\	.	.	.	.	.	.
.	.	.	32dd\	.	32bb\	.	.	.	.	.	.
.	.	.	32cc\JJJ)	.	32aa\J	.	.	.	.	.	.
.	.	.	16b\LL	.	16gg\)	.	(32G\LLL	.	.	.	.
.	.	.	.	.	.	.	32A\	.	.	.	.
.	.	.	(16b~\JJ	.	(16gg~\JJ	.	32B\	.	.	.	.
.	.	.	.	.	.	.	32A\JJJ)	.	.	.	.
8r	.	.	16b~\LL	.	16gg~\LL	.	8G\	.	.	.	.
.	.	.	16b~\	.	16gg~\	.	.	.	.	.	.
8C#X/	7 5	.	16b~\	.	16gg~\	.	8C#X/	.	.	.	.
.	.	.	16b~\JJ)	.	16gg~\JJ)	.	.	.	.	.	.
!	!	!	!	!	!	!	!LO:TUP:a:problem=klamra łukowa	!	!	!	!
8D/L	3	.	16a/LL	.	16ff#|\LL	.	24D\LL	.	.	.	.
.	.	.	.	.	.	.	24E\	.	.	.	.
.	.	.	(16a~/	.	16ff#'\	.	.	.	.	.	.
.	.	.	.	.	.	.	24F#\JJ	.	.	.	.
8C#X/	6 5	.	16a~/	.	(16gg~\	.	(32G\LLL	mi-	.	.	.
.	.	.	.	.	.	.	32E\JJJ)	.	.	.	.
.	.	.	16a~/JJ	.	16gg~\JJ	.	16C#X/	-ne	.	.	.
8D/	5 4	.	16a~/LL	.	16gg~\LL	.	8.DT</	Do-	.	.	.
.	.	.	16a~/	.	16gg~\	.	.	.	.	.	.
8DD/J	x 3	.	16a~/	.	16ff#~\	.	.	.	.	.	.
.	.	.	16a~/JJ)	.	16ff#~\JJ)	.	16D/	-mi-	.	.	.
=27	=27	=27	=27	=27	=27	=27	=27	=27	=27	=27	=27
!LO:TX:t=P:problem=mixed beam	!	!	!	!LO:DY:b:rj:t=f&colon;	!	!LO:DY:b:t=for	!	!	!	!	!
8GG/L	.	.	(16g/LL	f	(16g\KL	f	4GG/	-ni	1ryy	1ryy	1ryy
.	.	.	16b/	.	8dd\	.	.	.	.	.	.
8F#\	6 5	.	16cc/	.	.	.	.	.	.	.	.
.	.	.	16a/JJ)	.	16dd|\Jk)	.	.	.	.	.	.
!	!	!LO:DY:b:t=F&colon;	!	!	!	!	!	!	!	!	!
8G\	3	f	8b/L	.	(16dd\LL	.	4r	.	.	.	.
.	.	.	.	.	16gg\)	.	.	.	.	.	.
8c\J	4 2	.	8a/J	.	(16gg\	.	.	.	.	.	.
.	.	.	.	.	16ff#\JJ)	.	.	.	.	.	.
8B\L	6	.	(16d/LL	.	(16gg\KL	.	2r	.	.	.	.
.	.	.	16b/	.	8dd\)	.	.	.	.	.	.
8F#\	6 5	.	16cc/	.	.	.	.	.	.	.	.
.	.	.	16a/JJ)	.	16dd|\Jk	.	.	.	.	.	.
8G\	3	.	8b/L	.	(16dd\LL	.	.	.	.	.	.
.	.	.	.	.	16gg\)	.	.	.	.	.	.
8C\J	4 2	.	8a/J	.	(16gg\	.	.	.	.	.	.
.	.	.	.	.	16ff#\JJ)	.	.	.	.	.	.
=28	=28	=28	=28	=28	=28	=28	=28	=28	=28	=28	=28
!	!	!	!	!	!	!	!LO:TX:a:t=3	!	!	!	!
4BB/	6	.	8d 8B|>/	.	32ggT\LLL	.	0r	.	1ryy	1ryy	1ryy
.	.	.	.	.	(32ff#\	.	.	.	.	.	.
.	.	.	.	.	32gg\)	.	.	.	.	.	.
.	.	.	.	.	32aa\JJJ	.	.	.	.	.	.
.	.	.	32ggT\LLL	.	32bb\LLL	.	.	.	.	.	.
.	.	.	(32ff#\	.	(32aa\	.	.	.	.	.	.
.	.	.	32gg\	.	32bb\)	.	.	.	.	.	.
!	!	!	!	!	!LO:TX:t=P:problem=brzeg karty zaklejony, nuty niewidoczne	!	!	!	!	!	!
.	.	.	32aa\JJJ)	.	32aa\JJJyy	.	.	.	.	.	.
!	!	!	!LO:LB:g=original	!	!LO:LB:g=original	!	!	!	!	!	!
4r	.	.	(16bb\LL	.	(16ddd\LL	.	.	.	.	.	.
.	.	.	16gg\)	.	16bb\)	.	.	.	.	.	.
.	.	.	(16ee\	.	16ccc\	.	.	.	.	.	.
.	.	.	16cc\JJ)	.	16aa\JJ	.	.	.	.	.	.
.	.	.	8qqb/	.	.	.	.	.	.	.	.
8r	.	.	4.aT/	.	(8.ee\L	.	.	.	.	.	.
!LO:TX:t=P:problem=mixed beam	!	!	!	!	!	!	!	!	!	!	!
8C\L	6	.	.	.	.	.	.	.	.	.	.
.	.	.	.	.	16ff#\Jk)	.	.	.	.	.	.
.	.	.	.	.	8qqgg/	.	.	.	.	.	.
8D\	.	.	.	.	4ff#t\	.	.	.	.	.	.
8DD/J	7	.	(16dd\LL	.	.	.	.	.	.	.	.
.	.	.	16cc\JJ)	.	.	.	.	.	.	.	.
=29	=29	=29	=29	=29	=29	=29	=29	=29	=29	=29	=29
!	!	!LO:DY:b:t=p.	!	!LO:DY:b	!LO:TX:t=P:problem=mixed beam	!	!	!	!	!	!
8GG/L	3	p	16b/LL	p	16gg\KL	.	.	.	1ryy	1ryy	1ryy
!	!	!	!	!	!	!LO:DY:b:t=p&colon;	!	!	!	!	!
.	.	.	(16B/	.	8d/	p	.	.	.	.	.
8FF#/	6 5	.	16c/	.	.	.	.	.	.	.	.
.	.	.	16A/JJ)	.	16d/Jk	.	.	.	.	.	.
8GG/	3	.	8B/L	.	(16d/LL	.	.	.	.	.	.
.	.	.	.	.	16g/)	.	.	.	.	.	.
8C/J	4 2	.	8A/J	.	(16g/	.	.	.	.	.	.
.	.	.	.	.	16f#/JJ)	.	.	.	.	.	.
8BB/L	6	.	16G/LL	.	(16g/LL	.	.	.	.	.	.
.	.	.	(16B/	.	16d/J)	.	.	.	.	.	.
8FF#/	6 5	.	16c/	.	8d|/J	.	.	.	.	.	.
.	.	.	16A/JJ)	.	.	.	.	.	.	.	.
8GG/	3	.	8B/L	.	(16d/LL	.	.	.	.	.	.
.	.	.	.	.	16g/)	.	.	.	.	.	.
8C/J	2	.	8A/J	.	(16g/	.	.	.	.	.	.
.	.	.	.	.	16f#/JJ)	.	.	.	.	.	.
=30	=30	=30	=30	=30	=30	=30	=30	=30	=30	=30	=30
*	*	*	*Xtuplet	*	*Xtuplet	*	*	*	*	*	*
!	!	!LO:DY:b:t=F&colon;	!	!LO:DY:b:rj:t=f&colon;	!	!LO:DY:b:t=for	!	!	!	!	!
16BB|/LL	.	f	24B|/LL	f	24g/LL	f	1r	.	1ryy	1ryy	1ryy
.	.	.	24d|/	.	24d|/	.	.	.	.	.	.
16D|/	.	.	.	.	.	.	.	.	.	.	.
.	.	.	24c|/JJ	.	24c|/JJ	.	.	.	.	.	.
16BB|/	.	.	24B|/LL	.	24B|/LL	.	.	.	.	.	.
.	.	.	24A|/	.	24A|/	.	.	.	.	.	.
16GG|/JJ	.	.	.	.	.	.	.	.	.	.	.
.	.	.	24G|/JJ	.	24G|/JJ	.	.	.	.	.	.
!LO:LB:g=original	!	!	!	!	!	!	!	!	!	!	!
!LO:TX:t=P:problem=brzeg karty zaklejony, nuty niewidoczne	!	!	!	!	!	!	!	!	!	!	!
8ryy	.	.	16.cT/LL	.	16.cT/LL	.	.	.	.	.	.
.	.	.	(64B/LL	.	(64B/LL	.	.	.	.	.	.
.	.	.	64c/JJJJ)	.	64c/JJJJ)	.	.	.	.	.	.
8D/	7	.	16.dT/LL	.	16.dT/LL	.	.	.	.	.	.
.	.	.	(64c/LL	.	(64c/LL	.	.	.	.	.	.
.	.	.	64d/JJJJ)	.	64d/JJJJ)	.	.	.	.	.	.
!LO:TX:t=P:problem=mixed beam	!	!	!	!	!	!	!	!	!	!	!
8GG/L	.	.	8G/	.	8G/	.	.	.	.	.	.
.	.	.	8qqa/	.	8qqa/	.	.	.	.	.	.
*	*	*	*tuplet	*	*	*	*	*	*	*	*
!	!	!	!LO:TUP:b:problem=klamra łukowa	!	!LO:TUP:b:problem=klamra łukowa	!	!	!	!	!	!
8G\J	.	.	24g/LL	.	24g/LL	.	.	.	.	.	.
.	.	.	24f#/	.	24f#/	.	.	.	.	.	.
.	.	.	24g/JJ	.	24g/JJ	.	.	.	.	.	.
4GG/	.	.	8gg 8b 8d 8G/	.	8gg 8b 8d 8G/	.	.	.	.	.	.
.	.	.	8r	.	8r	.	.	.	.	.	.
==	==	==	==	==	==;;	==	==	==	==	==	==
*-	*-	*-	*-	*-	*-	*-	*-	*-	*-	*-	*-
!!!system-decoration: [(g1)][(g2)][(g3)]s7
!!!RDF**kern: > = above
!!!RDF**kern: < = below
!!!RDF**kern: | = vertical stroke
!!!ENC: Marta Opryszak
!!!END: 2022-03-30
!!!AIN: 1 bass 2 clrno 1 organ 1 soprn 2 violn
!!!ENC: Marta Lawrence
!!!END: 2022-04-07
